frontend/src/assets/svgs/social/instagram.svg

<svg viewBox="0 0 32 32" fill="none" xmlns="http://www.w3.org/2000/svg">
<path fill-rule="evenodd" clip-rule="evenodd" d="M9.95331 1.4215C11.5173 1.3495 12.016 1.3335 16 1.3335C19.984 1.3335 20.4826 1.35083 22.0453 1.4215C23.608 1.49216 24.6746 1.7415 25.608 2.10283C26.5853 2.47216 27.472 3.0495 28.2053 3.79616C28.952 4.52816 29.528 5.4135 29.896 6.39216C30.2586 7.3255 30.5066 8.39216 30.5786 9.95216C30.6506 11.5188 30.6666 12.0175 30.6666 16.0002C30.6666 19.9842 30.6493 20.4828 30.5786 22.0468C30.508 23.6068 30.2586 24.6735 29.896 25.6068C29.528 26.5856 28.951 27.4724 28.2053 28.2055C27.472 28.9522 26.5853 29.5282 25.608 29.8962C24.6746 30.2588 23.608 30.5068 22.048 30.5788C20.4826 30.6508 19.984 30.6668 16 30.6668C12.016 30.6668 11.5173 30.6495 9.95331 30.5788C8.39331 30.5082 7.32665 30.2588 6.39331 29.8962C5.41454 29.5281 4.52774 28.9512 3.79465 28.2055C3.04849 27.4731 2.47107 26.5867 2.10265 25.6082C1.74131 24.6748 1.49331 23.6082 1.42131 22.0482C1.34931 20.4815 1.33331 19.9828 1.33331 16.0002C1.33331 12.0162 1.35065 11.5175 1.42131 9.95483C1.49198 8.39216 1.74131 7.3255 2.10265 6.39216C2.47161 5.4136 3.04947 4.52725 3.79598 3.79483C4.52803 3.04883 5.41394 2.47142 6.39198 2.10283C7.32531 1.7415 8.39198 1.4935 9.95198 1.4215H9.95331ZM21.9266 4.0615C20.38 3.99083 19.916 3.97616 16 3.97616C12.084 3.97616 11.62 3.99083 10.0733 4.0615C8.64265 4.12683 7.86665 4.3655 7.34931 4.56683C6.66531 4.8335 6.17598 5.1495 5.66265 5.66283C5.17604 6.13623 4.80155 6.71254 4.56665 7.3495C4.36531 7.86683 4.12665 8.64283 4.06131 10.0735C3.99065 11.6202 3.97598 12.0842 3.97598 16.0002C3.97598 19.9162 3.99065 20.3802 4.06131 21.9268C4.12665 23.3575 4.36531 24.1335 4.56665 24.6508C4.80131 25.2868 5.17598 25.8642 5.66265 26.3375C6.13598 26.8242 6.71331 27.1988 7.34931 27.4335C7.86665 27.6348 8.64265 27.8735 10.0733 27.9388C11.62 28.0095 12.0826 28.0242 16 28.0242C19.9173 28.0242 20.38 28.0095 21.9266 27.9388C23.3573 27.8735 24.1333 27.6348 24.6506 27.4335C25.3346 27.1668 25.824 26.8508 26.3373 26.3375C26.824 25.8642 27.1986 25.2868 27.4333 24.6508C27.6346 24.1335 27.8733 23.3575 27.9386 21.9268C28.0093 20.3802 28.024 19.9162 28.024 16.0002C28.024 12.0842 28.0093 11.6202 27.9386 10.0735C27.8733 8.64283 27.6346 7.86683 27.4333 7.3495C27.1666 6.6655 26.8506 6.17616 26.3373 5.66283C25.8639 5.17626 25.2876 4.80178 24.6506 4.56683C24.1333 4.3655 23.3573 4.12683 21.9266 4.0615ZM14.1266 20.5215C15.1729 20.957 16.3378 21.0158 17.4226 20.6878C18.5073 20.3598 19.4445 19.6654 20.0741 18.7232C20.7038 17.7809 20.9867 16.6493 20.8747 15.5216C20.7627 14.3939 20.2627 13.3401 19.46 12.5402C18.9483 12.0288 18.3296 11.6372 17.6484 11.3937C16.9673 11.1501 16.2406 11.0606 15.5206 11.1317C14.8007 11.2027 14.1055 11.4324 13.4851 11.8043C12.8646 12.1763 12.3343 12.6812 11.9324 13.2826C11.5305 13.8841 11.2669 14.5672 11.1607 15.2828C11.0544 15.9983 11.1082 16.7286 11.318 17.4209C11.5279 18.1131 11.8886 18.7503 12.3743 19.2865C12.8599 19.8226 13.4584 20.2444 14.1266 20.5215ZM10.6693 10.6695C11.3693 9.96946 12.2004 9.41417 13.115 9.03531C14.0297 8.65646 15.01 8.46146 16 8.46146C16.99 8.46146 17.9703 8.65646 18.8849 9.03531C19.7996 9.41417 20.6306 9.96946 21.3306 10.6695C22.0307 11.3695 22.586 12.2006 22.9648 13.1152C23.3437 14.0299 23.5387 15.0102 23.5387 16.0002C23.5387 16.9902 23.3437 17.9705 22.9648 18.8851C22.586 19.7997 22.0307 20.6308 21.3306 21.3308C19.9169 22.7446 17.9994 23.5389 16 23.5389C14.0006 23.5389 12.0831 22.7446 10.6693 21.3308C9.25553 19.917 8.46128 17.9996 8.46128 16.0002C8.46128 14.0008 9.25553 12.0833 10.6693 10.6695ZM25.2106 9.58416C25.3841 9.42052 25.523 9.22374 25.6191 9.00546C25.7151 8.78719 25.7664 8.55185 25.7699 8.3134C25.7733 8.07495 25.7289 7.83823 25.6393 7.61724C25.5496 7.39626 25.4166 7.19551 25.2479 7.02688C25.0793 6.85825 24.8786 6.72517 24.6576 6.63552C24.4366 6.54587 24.1999 6.50146 23.9614 6.50494C23.723 6.50842 23.4876 6.5597 23.2693 6.65576C23.0511 6.75181 22.8543 6.89069 22.6906 7.06416C22.3724 7.40154 22.1982 7.84966 22.2049 8.3134C22.2117 8.77715 22.3989 9.22 22.7269 9.54795C23.0548 9.87591 23.4977 10.0631 23.9614 10.0699C24.4252 10.0767 24.8733 9.90242 25.2106 9.58416Z" fill="currentColor"/>
</svg>

<svg viewBox="0 0 32 32" fill="none" xmlns="http://www.w3.org/2000/svg"><path fill-rule="evenodd" clip-rule="evenodd" d="M9.953 1.421c1.564-.072 2.063-.088 6.047-.088 3.984 0 4.483.018 6.045.089 1.563.07 2.63.32 3.563.68.977.37 1.864.948 2.597 1.694a7.164 7.164 0 0 1 1.691 2.596c.363.933.61 2 .683 3.56.072 1.567.088 2.066.088 6.048 0 3.984-.018 4.483-.088 6.047-.071 1.56-.32 2.627-.683 3.56a7.195 7.195 0 0 1-1.69 2.599 7.191 7.191 0 0 1-2.598 1.69c-.933.363-2 .61-3.56.683-1.565.072-2.064.088-6.048.088s-4.483-.018-6.047-.088c-1.56-.07-2.626-.32-3.56-.683a7.196 7.196 0 0 1-2.598-1.69 7.189 7.189 0 0 1-1.692-2.598c-.362-.933-.61-2-.682-3.56-.072-1.566-.088-2.065-.088-6.048 0-3.984.018-4.482.088-6.045.071-1.563.32-2.63.682-3.563a7.195 7.195 0 0 1 1.693-2.597 7.19 7.19 0 0 1 2.596-1.692c.933-.362 2-.61 3.56-.682h.001Zm11.974 2.64c-1.547-.07-2.011-.085-5.927-.085-3.916 0-4.38.015-5.927.085-1.43.066-2.206.304-2.724.506a4.554 4.554 0 0 0-1.686 1.096 4.55 4.55 0 0 0-1.096 1.686c-.202.518-.44 1.294-.506 2.724-.07 1.547-.085 2.011-.085 5.927 0 3.916.015 4.38.085 5.927.066 1.43.304 2.207.506 2.724.234.636.609 1.213 1.096 1.686.473.487 1.05.862 1.686 1.096.518.202 1.294.44 2.724.506 1.547.07 2.01.085 5.927.085s4.38-.015 5.927-.085c1.43-.066 2.206-.304 2.724-.506a4.555 4.555 0 0 0 1.686-1.096 4.553 4.553 0 0 0 1.096-1.686c.202-.517.44-1.293.506-2.724.07-1.547.085-2.01.085-5.927 0-3.916-.015-4.38-.085-5.927-.066-1.43-.304-2.206-.506-2.724a4.555 4.555 0 0 0-1.096-1.686 4.55 4.55 0 0 0-1.686-1.096c-.518-.202-1.294-.44-2.724-.506Zm-7.8 16.46a4.892 4.892 0 1 0 3.521-9.127 4.891 4.891 0 0 0-6.487 3.889 4.893 4.893 0 0 0 2.966 5.239Zm-3.458-9.852a7.539 7.539 0 1 1 10.662 10.662 7.539 7.539 0 0 1-10.662-10.662Zm14.542-1.085a1.783 1.783 0 1 0-2.447-2.594 1.783 1.783 0 0 0 2.447 2.594Z" fill="currentColor"/></svg>
